static/images/extremis.svg

<svg width="172" height="32" viewBox="0 0 172 32" fill="none" xmlns="http://www.w3.org/2000/svg">
<g clip-path="url(#clip0)">
<path d="M21.5156 22.1484H6.59932C6.91572 24.7701 8.13614 26.2617 10.9838 26.2617C12.7918 26.2617 13.9218 25.5385 14.5095 24.1825L21.0184 25.6289C19.2555 29.3806 15.8655 31.9118 11.1646 31.9118C4.88169 31.9118 0 27.7533 0 20.4308C0 14.8259 3.93247 9.35658 11.029 9.35658C17.3119 9.35658 21.6964 14.2835 21.6964 20.3856C21.6964 20.9732 21.6512 21.5156 21.5156 22.1484ZM6.82532 17.5379H15.1423C14.8711 16.0463 13.6054 14.4643 11.029 14.4643C8.94976 14.4643 7.45813 15.4135 6.82532 17.5379Z" fill="white"/>
<path d="M29.2095 20.6116L21.0733 9.58257H28.9383L33.0063 15.5943L37.0744 9.58257H45.0749L36.9388 20.6116L45.0749 31.6406H37.0744L33.0063 25.674L28.9383 31.6406H21.0733L29.2095 20.6116Z" fill="white"/>
<path d="M54.935 15.0067V22.7812C54.935 24.092 55.8842 25.0412 57.195 25.0412H60.3591V31.6406H56.3362C51.8161 31.6406 48.2001 28.0245 48.2001 23.4592V15.0067H45.8496V9.58256H48.2001V3.66125H54.935V9.58256H60.4043V15.0067H54.935V15.0067Z" fill="white"/>
<path d="M63.3294 9.58258H69.3863V12.0686C70.3807 10.3962 72.5956 9.26617 74.494 9.26617C75.0364 9.26617 75.624 9.35658 76.1212 9.58258V15.6847C75.1268 15.5943 74.3132 15.5943 73.5448 15.5943C70.7875 15.5943 69.5219 17.4023 69.5219 21.154V31.6406H63.3294V9.58258V9.58258Z" fill="white"/>
<path d="M98.9348 22.1484H84.0186C84.335 24.7701 85.5554 26.2617 88.403 26.2617C90.2111 26.2617 91.3411 25.5385 91.9287 24.1825L98.4376 25.6289C96.6748 29.3806 93.2847 31.9118 88.5839 31.9118C82.3009 31.9118 77.4193 27.7533 77.4193 20.4308C77.4193 14.8259 81.3517 9.35658 88.4483 9.35658C94.7312 9.35658 99.1156 14.2835 99.1156 20.3856C99.1156 20.9732 99.0704 21.5156 98.9348 22.1484ZM84.2446 17.5379H92.5615C92.2903 16.0463 91.0247 14.4643 88.4483 14.4643C86.369 14.4643 84.8774 15.4135 84.2446 17.5379Z" fill="white"/>
<path d="M101.815 9.58257H108.369V11.7974C109.861 9.94417 111.895 9.17576 114.245 9.17576C116.822 9.17576 118.991 10.7126 119.76 12.1138C121.748 9.89897 124.054 9.22096 126.178 9.22096C131.783 9.22096 134.405 13.2438 134.405 17.2215V31.6406H127.67V18.9391C127.67 16.2271 126.54 15.2327 124.551 15.2327C122.517 15.2327 121.432 16.9503 121.432 19.1199V31.6406H114.697V18.8939C114.697 16.2271 113.612 15.2327 111.623 15.2327C109.363 15.2327 108.505 16.9503 108.505 19.1199V31.6406H101.815V9.58257V9.58257Z" fill="white"/>
<path d="M137.511 3.75167C137.511 1.67243 139.183 0 141.308 0C143.387 0 145.104 1.67243 145.104 3.75167C145.104 5.8761 143.387 7.54853 141.308 7.54853C139.183 7.54853 137.511 5.8761 137.511 3.75167ZM138.053 9.58257H144.698V31.6406H138.053V9.58257Z" fill="white"/>
<path d="M147.181 25.3577L152.831 23.8661C153.102 25.8549 154.548 26.8945 156.13 26.8945C157.486 26.8945 158.481 26.0809 158.481 25.1769C158.481 23.5045 155.723 23.188 153.011 22.3744C150.299 21.5156 147.633 20.1596 147.633 16.2723C147.633 11.7974 151.701 9.13058 156.04 9.13058C160.379 9.13058 163.453 11.6618 164.402 15.1875L159.114 16.5435C158.842 15.2327 157.712 14.1931 155.995 14.1931C154.684 14.1931 153.735 14.7355 153.735 15.8203C153.735 17.2215 156.492 17.3571 159.204 18.216C161.961 19.0748 164.718 20.6116 164.718 24.9057C164.718 29.3806 160.831 32.0926 156.492 32.0926C151.565 32.0926 148.22 29.3354 147.181 25.3577Z" fill="white"/>
<path d="M168.964 8.99496C170.442 8.99496 171.647 10.0992 171.647 11.6876C171.647 13.2858 170.442 14.3739 168.964 14.3739C167.469 14.3739 166.271 13.2858 166.271 11.6876C166.271 10.0959 167.469 8.99496 168.964 8.99496ZM168.964 13.8928C170.194 13.8928 171.117 13.0017 171.117 11.6844C171.117 10.3607 170.194 9.47603 168.964 9.47603C167.75 9.47603 166.804 10.3607 166.804 11.6844C166.804 13.0017 167.753 13.8928 168.964 13.8928ZM169.051 11.9298H168.919H168.502V13.0178H167.914V10.1702H168.789C169.635 10.1702 170.136 10.3122 170.136 11.0484C170.136 11.3616 169.978 11.6521 169.619 11.8071L170.278 13.0211H169.629L169.051 11.9298ZM168.886 10.6287H168.502V11.4746H168.919C169.364 11.4746 169.551 11.3325 169.551 11.0516C169.551 10.7158 169.277 10.6287 168.886 10.6287Z" fill="white"/>
</g>
<defs>
<clipPath id="clip0">
<path d="M0 0H172V32H0V0Z" fill="white"/>
</clipPath>
</defs>
</svg>

<svg fill="none" xmlns="http://www.w3.org/2000/svg" viewBox="0 0 172 32"><g clip-path="url(#clip0)" fill="#fff"><path d="M21.516 22.148H6.599c.317 2.622 1.537 4.114 4.385 4.114 1.808 0 2.938-.724 3.525-2.08l6.51 1.447c-1.763 3.752-5.153 6.283-9.854 6.283C4.882 31.912 0 27.753 0 20.43 0 14.826 3.932 9.357 11.029 9.357c6.283 0 10.667 4.927 10.667 11.029 0 .587-.045 1.13-.18 1.762zm-14.69-4.61h8.316c-.27-1.492-1.537-3.074-4.113-3.074-2.08 0-3.57.95-4.204 3.074z"/><path d="M29.21 20.612l-8.137-11.03h7.865l4.068 6.012 4.068-6.011h8L36.94 20.612l8.136 11.029h-8l-4.069-5.967-4.068 5.967h-7.865l8.136-11.03zM54.935 15.007v7.774c0 1.311.95 2.26 2.26 2.26h3.164v6.6h-4.023c-4.52 0-8.136-3.616-8.136-8.182v-8.452h-2.35V9.583h2.35V3.66h6.735v5.922h5.47v5.424h-5.47zM63.33 9.583h6.056v2.486c.995-1.673 3.21-2.803 5.108-2.803.542 0 1.13.09 1.627.317v6.102c-.994-.09-1.808-.09-2.576-.09-2.758 0-4.023 1.807-4.023 5.559v10.487h-6.193V9.583zM98.935 22.148H84.019c.316 2.622 1.536 4.114 4.384 4.114 1.808 0 2.938-.724 3.526-2.08l6.509 1.447c-1.763 3.752-5.153 6.283-9.854 6.283-6.283 0-11.165-4.159-11.165-11.481 0-5.605 3.933-11.074 11.03-11.074 6.282 0 10.667 4.927 10.667 11.029 0 .587-.046 1.13-.181 1.762zm-14.69-4.61h8.316c-.27-1.492-1.536-3.074-4.113-3.074-2.079 0-3.57.95-4.203 3.074zM101.815 9.583h6.554v2.214c1.492-1.853 3.526-2.621 5.876-2.621 2.577 0 4.746 1.537 5.515 2.938 1.988-2.215 4.294-2.893 6.418-2.893 5.605 0 8.227 4.023 8.227 8v14.42h-6.735V18.939c0-2.712-1.13-3.706-3.119-3.706-2.034 0-3.119 1.717-3.119 3.887v12.52h-6.735V18.895c0-2.667-1.085-3.661-3.074-3.661-2.26 0-3.118 1.717-3.118 3.887v12.52h-6.69V9.584zM137.511 3.752c0-2.08 1.672-3.752 3.797-3.752 2.079 0 3.796 1.672 3.796 3.752a3.79 3.79 0 01-3.796 3.797 3.762 3.762 0 01-3.797-3.797zm.542 5.83h6.645v22.059h-6.645V9.583zM147.181 25.358l5.65-1.492c.271 1.989 1.717 3.029 3.299 3.029 1.356 0 2.351-.814 2.351-1.718 0-1.672-2.758-1.989-5.47-2.803-2.712-.858-5.378-2.214-5.378-6.102 0-4.475 4.068-7.141 8.407-7.141s7.413 2.53 8.362 6.056l-5.288 1.357c-.272-1.311-1.402-2.35-3.119-2.35-1.311 0-2.26.541-2.26 1.626 0 1.401 2.757 1.537 5.469 2.396 2.757.859 5.514 2.396 5.514 6.69 0 4.475-3.887 7.187-8.226 7.187-4.927 0-8.272-2.758-9.311-6.735zM168.964 8.995c1.478 0 2.683 1.104 2.683 2.693 0 1.598-1.205 2.686-2.683 2.686-1.495 0-2.693-1.088-2.693-2.686 0-1.592 1.198-2.693 2.693-2.693zm0 4.898c1.23 0 2.153-.891 2.153-2.209 0-1.323-.923-2.208-2.153-2.208-1.214 0-2.16.885-2.16 2.208 0 1.318.949 2.209 2.16 2.209zm.087-1.963H168.502v1.088h-.588V10.17h.875c.846 0 1.347.142 1.347.878 0 .314-.158.604-.517.76l.659 1.213h-.649l-.578-1.091zm-.165-1.301h-.384v.846h.417c.445 0 .632-.143.632-.423 0-.336-.274-.423-.665-.423z"/></g><defs><clipPath id="clip0"><path d="M0 0h172v32H0V0z" fill="#fff"/></clipPath></defs></svg>
